src/qt/dogecash/res/img/ic-nav-governance-active.svg

<?xml version="1.0" encoding="UTF-8"?>
<svg width="24px" height="46px" viewBox="0 0 24 46" version="1.1" xmlns="http://www.w3.org/2000/svg" xmlns:xlink="http://www.w3.org/1999/xlink">
    <title>ic-nav-governance-active</title>
    <g id="Page-1" stroke="none" stroke-width="1" fill="none" fill-rule="evenodd">
        <g id="ic-nav-governance-active">
            <rect id="Rectangle-Copy-10" x="0" y="0" width="24" height="46"></rect>
            <g transform="translate(0.000000, 6.000000)" fill="#FFFFFF" fill-rule="nonzero">
                <g id="096-bitcoin-4" transform="translate(0.500000, 15.000000)">
                    <rect id="Rectangle" x="9.25609756" y="10.90625" width="4.48780488" height="2.3125"></rect>
                    <rect id="Rectangle" x="8.13414634" y="16.6875" width="2.24390244" height="2.3125"></rect>
                    <rect id="Rectangle" x="12.6219512" y="16.6875" width="2.24390244" height="2.3125"></rect>
                    <path d="M17.1097561,19 L22.9663415,19 L20.2736585,5.125 L15.9878049,5.125 L15.9878049,2.8125 L22.7195122,2.8125 L22.7195122,0.5 L0.280487805,0.5 L0.280487805,2.8125 L7.01219512,2.8125 L7.01219512,5.125 L2.72746341,5.125 L0.0336585366,19 L5.8902439,19 L5.8902439,16.6875 L2.77121951,16.6875 L4.56634146,7.4375 L18.4347805,7.4375 L20.2299024,16.6875 L17.1097561,16.6875 L17.1097561,19 Z M13.7439024,5.125 L9.25609756,5.125 L9.25609756,2.8125 L13.7439024,2.8125 L13.7439024,5.125 Z" id="Shape"></path>
                </g>
                <path d="M13.6153702,2.29344989 L12.060756,1.88287896 L10.5070842,2.29343023 L7.6868396,0.00025191 L6,3.41914541 L6.6372704,5.9814346 L6.6231851,9.0801933 L9.3105189,12.317344 L12.0608273,13.1488914 L14.8110224,12.3173783 L17.4995965,9.080164 L17.4844271,5.9812623 L18.1216546,3.41914541 L16.4346907,0 L13.6153702,2.29344989 Z M15.4832275,5.74110565 L15.4960581,8.362204 L13.6566322,10.5769897 L12.0608273,11.0594765 L10.4651357,10.577024 L8.6264695,8.3621746 L8.6383842,5.74093335 L8.1176546,3.64722254 L8.370815,3.13411604 L10.0345704,4.48693772 L12.0608986,3.95148899 L14.0882844,4.48691806 L15.7509639,3.13436795 L16.004,3.64722254 L15.4832275,5.74110565 Z" id="Stroke-61"></path>
            </g>
        </g>
    </g>
</svg>

<svg id="ic-nav-governance-active" xmlns="http://www.w3.org/2000/svg" width="24" height="46" viewBox="0 0 24 46">
  <rect id="Rectangle-Copy-10" width="24" height="46" fill="none"/>
  <g id="Group_417" data-name="Group 417" transform="translate(0 6)">
    <g id="_096-bitcoin-4" data-name="096-bitcoin-4" transform="translate(0.5 15)">
      <rect id="Rectangle" width="4.488" height="2.313" transform="translate(9.256 10.906)" fill="#216beb"/>
      <rect id="Rectangle-2" data-name="Rectangle" width="2.244" height="2.313" transform="translate(8.134 16.688)" fill="#216beb"/>
      <rect id="Rectangle-3" data-name="Rectangle" width="2.244" height="2.313" transform="translate(12.622 16.688)" fill="#216beb"/>
      <path id="Shape" d="M17.11,19h5.857L20.274,5.125H15.988V2.813H22.72V.5H.28V2.813H7.012V5.125H2.727L.034,19H5.89V16.688H2.771l1.8-9.25H18.435l1.8,9.25H17.11ZM13.744,5.125H9.256V2.813h4.488Z" fill="#216beb"/>
    </g>
    <path id="Stroke-61" d="M13.615,2.293l-1.555-.411-1.554.411L7.687,0,6,3.419l.637,2.562-.014,3.1,2.687,3.237,2.75.832,2.75-.832L17.5,9.08l-.015-3.1.637-2.562L16.435,0Zm1.868,3.448L15.5,8.362l-1.839,2.215-1.6.482-1.6-.482L8.626,8.362l.012-2.621L8.118,3.647l.253-.513,1.664,1.353,2.026-.535,2.027.535,1.663-1.353L16,3.647Z" fill="#216beb"/>
  </g>
</svg>
